X:1
T:Title
%%score 1 2
L:1/8
Q:1/4=100
M:4/4
K:C
V:1 treble nm="Strings 1, Treble"
V:2 bass nm="Strings 1, Bass"
V:1
 z4 z2 C>[CE] | [EG]2 [CE]2 [EG]2 [Ge]2 | [Ac]2 [FA]2 [Fc]2 [Fc]>[Fc] | [Ec]2 [EG]2 [EG]2 [CE]2 | %4
w: 1.~By~ the~|word~ of~ God~ the~|worlds~ were~ made,~ And~ are~|held~ in~ place~ by~|
 [DF]2 [CE]2 [B,D]2 C>[CE] | [EG]2 [EG]2 [Ec][Ec][Ec][Ec] | [Ge]2 [Gc]2 [FA]2 [Fd]>[Fd] | %7
w: His~ com mands;~ All~ the~|grass es~ with er~ and~ the~|flow ers~ fade,~ But~ His~|
 [Ec]2 [DB]2 [Ec]2 [Fd]2 | [Ec]6 z2 | [EG]2 [EG]2 [EG]2 [CE]2 | [Ec]4 [EG]4 | %11
w: truth~ for ev er~|stands.~|||
 [Gc]2 [FA]2 [EG]2 [DG]2 | [EG]6 z2 | [Fd]2 [Fd]2 [Ec]2 [FB]2 | [Gc]2 [Gd]2 [Ge]2 [Gc]2 | %15
w: ||||
 [Gd]6 z2 | [Ge]2 [Ec]2 [Ec]2 [CG]2 | [Ec]4 [EG]4 | [FA]2 [GB]2 [Gc]2 [Gd]2 | [Ge]6 z2 | %20
w: |||||
 [Gc]2 [Ec]2 [Fc]2 [Ad]2 | [Gc]4 [FB]4 | [Ec]6 z2 |] %23
w: |||
V:2
 z4 z2 [C,E,]>[C,G,] | [C,C]2 [C,G,]2 [C,C]2 [C,C]2 | [F,C]2 [F,C]2 [F,A,]2 [F,A,]>[F,A,] | %3
 [C,G,]2 [C,C]2 [C,C]2 [C,G,]2 | [B,,G,]2 [C,G,]2 [G,,G,]2 [C,E,]>[C,G,] | %5
 [C,C]2 [C,C]2 [C,G,][C,G,][C,G,][C,G,] | [C,C]2 [E,C]2 [F,C]2 [F,A,]>[F,A,] | %7
 G,2 G,2 [G,,G,]2 [G,,G,]2 | [C,G,]6 z2 | [C,C]2 [C,C]2 [C,C]2 [C,G,]2 | [C,G,]4 [C,C]4 | %11
 [E,C]2 [F,C]2 [G,C]2 [G,,B,]2 | [C,C]6 z2 | [G,B,]2 [G,B,]2 [A,C]2 [G,D]2 | %14
 [E,C]2 [D,B,]2 [C,C]2 [E,C]2 | [G,B,]6 z2 | [C,C]2 [C,G,]2 [C,G,]2 [C,E,]2 | [C,G,]4 [C,C]4 | %18
 [F,C]2 [D,D]2 [E,C]2 [G,B,]2 | C6 z2 | [E,C]2 [C,C]2 [F,A,]2 [D,F]2 | [G,E]4 [G,,G,D]4 | %22
 [C,C]6 z2 |] %23

